icons/core/eye-fill.svg

<svg width="32" height="32" viewBox="0 0 32 32" fill="none" xmlns="http://www.w3.org/2000/svg">
<path fill-rule="evenodd" clip-rule="evenodd" d="M16.0001 5C11.0152 5.00001 7.43942 7.14651 5.04303 9.5429C2.66817 11.9178 1.42666 14.5582 1.05146 15.6838L0.946045 16L1.05145 16.3162C1.42665 17.4418 2.66816 20.0822 5.04303 22.4571C7.43941 24.8535 11.0152 27 16.0001 27C20.985 27 24.5609 24.8535 26.9572 22.4571C29.3321 20.0822 30.5736 17.4418 30.9488 16.3162L31.0542 16L30.9488 15.6838C30.5736 14.5582 29.3321 11.9178 26.9572 9.54289C24.5609 7.1465 20.985 4.99999 16.0001 5ZM20 16C20 18.2091 18.2091 20 16 20C13.7909 20 12 18.2091 12 16C12 13.7909 13.7909 12 16 12C18.2091 12 20 13.7909 20 16ZM22.6667 16C22.6667 19.6819 19.6819 22.6667 16 22.6667C12.3181 22.6667 9.33333 19.6819 9.33333 16C9.33333 12.3181 12.3181 9.33332 16 9.33332C19.6819 9.33332 22.6667 12.3181 22.6667 16Z" fill="black"/>
</svg>

<svg viewBox="0 0 32 32" xmlns="http://www.w3.org/2000/svg"><path fill-rule="evenodd" d="M16 5C11.015 5 7.44 7.147 5.043 9.543c-2.375 2.375-3.616 5.015-3.992 6.14L.946 16l.105.316c.376 1.126 1.617 3.766 3.992 6.141C7.439 24.853 11.015 27 16 27s8.56-2.146 10.957-4.543c2.375-2.375 3.617-5.015 3.992-6.14l.105-.317-.105-.316c-.375-1.126-1.617-3.766-3.992-6.141C24.561 7.147 20.985 5 16 5zm4 11a4 4 0 11-8 0 4 4 0 018 0zm2.667 0a6.667 6.667 0 11-13.334 0 6.667 6.667 0 0113.334 0z"/></svg>
